hornpipes/bobbycaseys.htmlhornpipes/bobbycaseys.htmlhornpipes/bobbycaseys.htmlhornpipes/bobbycaseys.htmlhornpipes/bobbycaseys.htmlhornpipes/bobbycaseys.htmlhornpipes/bobbycaseys.htmlhornpipes/bobbycaseys.htmlhornpipes/bobbycaseys.htmlhornpipes/bobbycaseys.html<PRE>T:Holly Bush, The
T:Holly Bush, The
M:6/8
L:1/8
R:jig
Z:Devin McCabe
K:G
BAG G2D|~G3 ABc|BAG edc|B/c/d B cBA|
!BAG GDG|GDG ABc|BAG ed^c|def g2d:|
!gdd gdd|gdd dcB|Acc Acc|Acc cBA|
!~B3 cdc|BAG Fdc|BAG edB|def g3:|

%  ABC2Win Version 2.1 7/22/2000
hornpipes/bobbycaseys.htmlhornpipes/bobbycaseys.htmlhornpipes/bobbycaseys.htmlhornpipes/bobbycaseys.htmlhornpipes/bobbycaseys.htmlhornpipes/bobbycaseys.htmlhornpipes/bobbycaseys.html